X:65
T:GB/7a/65 Come All You Little Streamers 
%%VWML:GB-7a-65-0
F:http://www.vwml.org/record/GB/7a/65
P:F.W. J(ekyll)
C:Transcribed by Simon Furey and Lewis Jones
L:1/8
M:6/8
I:linebreak $
K:C
B2 d | d2 c AGF | A2 G E2 F | G2 G A2 B | c3- c2 |: c | G2 G !fermata!e2 c | d3 ede |$ c2 c E2 F |1 G3- G2 :|2 G3 B2 d || d2 c AGF | A2 G E2 F | G2 G A2 B | !fermata!c3 |]

